public/bevm.svg

<svg width="70" height="20" viewBox="0 0 70 20" fill="none" xmlns="http://www.w3.org/2000/svg">
<path d="M31.8469 15.1668H27L29.369 4.8335H34.0142C36.2198 4.90235 37.2034 5.75073 36.9651 7.37862C36.7083 8.49859 36.0454 9.26213 34.9766 9.66925C35.9782 10.1452 36.4053 10.9258 36.2578 12.0111C35.7742 14.1149 34.3039 15.1668 31.8469 15.1668ZM33.2043 6.82087H31.4371L30.9592 8.90734H32.7297C33.5456 8.87426 34.0519 8.50108 34.2487 7.78765C34.3596 7.14202 34.0115 6.81916 33.2043 6.81916V6.82087ZM32.4732 10.8922H30.5059L29.9813 13.1828H31.9486C32.8978 13.1498 33.4751 12.7597 33.6806 12.0127C33.7762 11.2988 33.3737 10.9247 32.4732 10.8905V10.8922ZM44.9265 15.1668H37.1666L39.5602 4.8335H47.1666L46.6694 6.97207H41.72L41.26 8.95611H45.8547L45.3707 11.0434H40.776L40.316 13.0274H45.4213L44.9265 15.1668ZM50.8588 4.8335L51.291 12.2173L54.9745 4.8335H57.6667L51.8296 15.1668H49.2892L48.1667 4.8335H50.8588ZM62.8416 4.8335L62.5116 11.3492L62.3582 12.6713L62.8672 11.3492L65.5401 4.8335H69.5L67.1208 15.1668H64.6813L66.2075 8.54956L66.6455 6.8663L65.8792 8.64788L63.0553 15.1636H60.5655L60.7701 8.54622L60.841 6.91755L60.5317 8.49831L58.9939 15.1668H56.5L58.8817 4.8335H62.8416Z" fill="#B0B0B5"/>
<path d="M9.15985 0L11.3041 1.34593L9.63956 6.97993L7.49585 5.63394L9.15985 0Z" fill="#B0B0B5" fill-opacity="0.5"/>
<path d="M6.62459 8.58398L8.76831 9.92998L6.67387 17.0241L4.52954 15.6782L6.62459 8.58398Z" fill="#B0B0B5" fill-opacity="0.5"/>
<path d="M12.6397 2.98526C12.4756 2.88346 12.2859 2.83022 12.0928 2.83157H9.0174L11.1617 4.17941H14.2371C14.4312 4.17678 14.6221 4.22967 14.7871 4.33182L12.6397 2.98526Z" fill="#B0B0B5" fill-opacity="0.3"/>
<path d="M10.2121 8.58398L12.3558 9.92998H8.76798L6.62427 8.58398H10.2121Z" fill="#B0B0B5" fill-opacity="0.3"/>
<path d="M11.8515 5.63379L13.9958 6.97979L12.3558 9.92982L10.2121 8.58382L11.8515 5.63379Z" fill="#B0B0B5" fill-opacity="0.5"/>
<path d="M18.667 5.11843C18.6615 5.00471 18.6529 4.89106 18.6387 4.77918V4.76875C18.6202 4.62776 18.5952 4.48913 18.5636 4.35269C18.555 4.31577 18.5427 4.28078 18.5334 4.24386C18.5075 4.14491 18.4799 4.04659 18.4472 3.95068C18.4429 3.9384 18.4404 3.92555 18.4361 3.9132C18.4244 3.88005 18.4084 3.8518 18.3961 3.81673C18.3622 3.727 18.3259 3.63791 18.2859 3.55187C18.2637 3.50332 18.2397 3.45597 18.2156 3.40862C18.1738 3.32812 18.1301 3.24883 18.0833 3.17145C18.0672 3.14497 18.0549 3.11608 18.0383 3.09031C18.0217 3.06447 17.9995 3.03374 17.9804 3.00548L17.9311 2.93293C17.8695 2.84321 17.8018 2.75475 17.731 2.67049L17.7279 2.66687C17.641 2.56429 17.5487 2.4664 17.4514 2.37369L17.4403 2.36198C17.3985 2.32208 17.3523 2.28702 17.3085 2.2489C17.2648 2.21085 17.2143 2.1647 17.1645 2.12602L17.1515 2.11494C17.0596 2.04445 16.9643 1.97808 16.8658 1.91582L14.7165 0.569824C14.82 0.634991 14.9198 0.705694 15.0152 0.780019C15.0657 0.819346 15.1125 0.862365 15.1605 0.90297C15.2085 0.943504 15.2572 0.98283 15.3022 1.02585C15.3995 1.11863 15.4918 1.21645 15.5787 1.31903C15.6507 1.4045 15.7178 1.49359 15.7819 1.58516C15.7991 1.60915 15.8151 1.63372 15.8318 1.65828C15.8675 1.71173 15.9007 1.76767 15.934 1.82361C15.9808 1.90106 16.025 1.98035 16.0664 2.06149C16.0905 2.1082 16.1144 2.15548 16.1366 2.20346C16.1773 2.29007 16.213 2.37923 16.2475 2.46896C16.2641 2.51382 16.2825 2.55741 16.298 2.60291C16.3312 2.69882 16.3595 2.79713 16.3842 2.89673C16.3934 2.93293 16.4057 2.968 16.4144 3.00484C16.4466 3.14213 16.4717 3.28106 16.4895 3.42097C16.5049 3.53647 16.5141 3.65325 16.5197 3.77066C16.5197 3.79217 16.5197 3.81368 16.5227 3.83575C16.5264 3.95196 16.5258 4.0693 16.5227 4.18672C16.5227 4.20823 16.5227 4.22974 16.519 4.25188C16.5123 4.36497 16.5012 4.47926 16.4852 4.59355C16.4852 4.60647 16.4852 4.62003 16.4802 4.63351C16.4618 4.75646 16.4371 4.87934 16.4082 5.00719C16.4033 5.02806 16.3984 5.04837 16.3928 5.06867C16.3645 5.18417 16.3312 5.2991 16.2924 5.41402C16.2709 5.4755 16.245 5.5413 16.221 5.60519C16.197 5.66908 16.1668 5.75022 16.1354 5.82277C16.1107 5.87871 16.0818 5.93465 16.0547 5.99052C16.0098 6.08393 15.966 6.17494 15.9137 6.27021L14.3624 9.02481L14.0299 9.5607C14.0329 9.5607 14.0403 9.57362 14.0489 9.58526L14.06 9.59939L14.0884 9.63751C14.0939 9.64553 14.1007 9.65533 14.1075 9.66399L14.1444 9.7168L14.1697 9.75372C14.1838 9.77459 14.1986 9.79794 14.214 9.82193L14.2424 9.86552C14.2731 9.91471 14.3039 9.96881 14.3408 10.0284C14.3458 10.0376 14.3513 10.0481 14.3568 10.0573C14.3871 10.1101 14.4184 10.1679 14.4492 10.2281C14.4585 10.2459 14.4677 10.2638 14.477 10.2829C14.5133 10.3553 14.5503 10.4322 14.5866 10.5139C14.5903 10.5232 14.594 10.5336 14.5983 10.5428C14.6303 10.6166 14.6598 10.6946 14.6913 10.7757C14.7011 10.8034 14.7116 10.8311 14.7214 10.8593C14.735 10.8968 14.7473 10.9355 14.7603 10.9743C14.7732 11.013 14.783 11.0462 14.7935 11.083C14.804 11.1199 14.8163 11.1642 14.8274 11.206C14.8385 11.2477 14.8471 11.2816 14.8563 11.3209C14.8656 11.3602 14.8754 11.4063 14.884 11.45C14.8927 11.4936 14.9001 11.5293 14.9075 11.5728C14.9148 11.6165 14.9216 11.6632 14.9284 11.7087C14.9351 11.7541 14.9388 11.7867 14.9432 11.8267C14.9548 11.9318 14.9641 12.0387 14.9672 12.1488L17.1115 13.4947C17.1084 13.3847 17.0992 13.2778 17.0874 13.1726C17.0874 13.1616 17.0874 13.1499 17.0874 13.1388C17.0837 13.1099 17.0788 13.0829 17.0745 13.054C17.0684 13.0091 17.0616 12.9637 17.0542 12.9194C17.0468 12.8752 17.0388 12.8383 17.0308 12.7965C17.0228 12.7547 17.0129 12.7105 17.0031 12.668C16.9932 12.6257 16.984 12.5907 16.9742 12.5531C16.9643 12.5156 16.952 12.4714 16.9402 12.4302C16.9286 12.3891 16.9181 12.3565 16.9064 12.3208C16.8947 12.2852 16.8811 12.244 16.8682 12.2065C16.8633 12.1918 16.8584 12.1758 16.8534 12.1616C16.8485 12.1475 16.843 12.1358 16.8374 12.1223C16.8079 12.0412 16.7758 11.9631 16.7445 11.8894C16.7408 11.8802 16.7371 11.8697 16.7327 11.8611C16.697 11.7788 16.6601 11.7019 16.6237 11.6294L16.5954 11.5747C16.5646 11.5133 16.5338 11.4567 16.5036 11.4038L16.4876 11.3756C16.4526 11.3141 16.4199 11.2613 16.3885 11.2115L16.3805 11.1986L16.3614 11.1691L16.3165 11.1003L16.2906 11.0627C16.2776 11.0437 16.2653 11.0271 16.2542 11.0111L16.2345 10.9841L16.2068 10.946L16.1957 10.9318L16.1766 10.9073L16.5092 10.3714L18.0555 7.62103C18.0759 7.58476 18.0956 7.54855 18.1171 7.51292C18.1473 7.4557 18.1713 7.39856 18.199 7.34141C18.2267 7.28427 18.2544 7.22953 18.279 7.1736C18.2859 7.15947 18.2938 7.14534 18.3 7.13058C18.3246 7.07287 18.3431 7.01444 18.3653 6.95609C18.3875 6.89767 18.4152 6.82888 18.4367 6.76556C18.4404 6.75264 18.4466 6.74036 18.4503 6.72744C18.4836 6.62543 18.5119 6.52214 18.5371 6.42013C18.542 6.39983 18.5476 6.3796 18.5519 6.35866C18.5562 6.33779 18.5661 6.30456 18.5716 6.27759C18.5925 6.17984 18.6104 6.08209 18.6246 5.98498C18.6246 5.97149 18.6276 5.95857 18.6295 5.94508C18.6399 5.86948 18.6498 5.79452 18.6559 5.71948C18.6596 5.6808 18.6609 5.64204 18.6633 5.60335L18.667 5.53818C18.6726 5.42084 18.6732 5.30342 18.667 5.18729C18.667 5.16266 18.667 5.13994 18.667 5.11843Z" fill="#B0B0B5" fill-opacity="0.5"/>
<path d="M14.9646 12.146L17.1089 13.4926H10.8613L8.71704 12.146H14.9646Z" fill="#B0B0B5" fill-opacity="0.3"/>
<path d="M20.3297 13.0183C20.3297 12.9285 20.326 12.8388 20.3204 12.7497C20.3204 12.722 20.3204 12.695 20.3161 12.668C20.3093 12.5635 20.3001 12.4596 20.2878 12.3563C20.2878 12.3489 20.2878 12.3416 20.2847 12.3342C20.2773 12.2728 20.2668 12.2113 20.2576 12.1498C20.2483 12.0883 20.2391 12.022 20.2274 11.9587C20.2157 11.8954 20.2028 11.8358 20.1899 11.7786C20.1769 11.7215 20.1646 11.6526 20.1492 11.5899C20.1338 11.5273 20.1178 11.472 20.1018 11.413C20.0858 11.3539 20.0691 11.29 20.0507 11.2285C20.0322 11.1671 20.0125 11.1124 19.9934 11.0546C19.9743 10.9968 19.9607 10.9496 19.9423 10.8985C19.9392 10.8906 19.9355 10.8832 19.933 10.8752C19.9103 10.8137 19.8857 10.7523 19.8623 10.6945C19.8388 10.6367 19.8191 10.5826 19.7951 10.5279C19.7711 10.4732 19.7421 10.4105 19.7151 10.3521C19.688 10.2938 19.6664 10.244 19.6399 10.1905C19.6134 10.137 19.5783 10.0774 19.5506 10.0209C19.5229 9.96432 19.4964 9.91576 19.4674 9.86479C19.4385 9.81375 19.4028 9.75476 19.3695 9.70067C19.3363 9.64658 19.3172 9.61038 19.2895 9.56672C19.2868 9.56196 19.2837 9.55742 19.2803 9.55316C19.2076 9.43887 19.1319 9.32827 19.053 9.22009C19.034 9.19304 19.013 9.16784 18.9914 9.14143C18.9298 9.06093 18.8683 8.98164 18.8067 8.90476C18.7962 8.89191 18.787 8.87778 18.7759 8.86543C18.7488 8.83349 18.7205 8.80403 18.6928 8.77201C18.6571 8.73084 18.6213 8.6903 18.5844 8.64913C18.5474 8.60796 18.5 8.56061 18.4575 8.51759C18.415 8.47457 18.3824 8.44078 18.3442 8.40451C18.3332 8.39343 18.3226 8.38179 18.3115 8.37136C18.25 8.31293 18.1884 8.25579 18.1225 8.20049L15.9782 6.85449C16.054 6.91966 16.1272 6.98852 16.1999 7.05794C16.2381 7.09486 16.2756 7.13354 16.3126 7.17103C16.3495 7.20851 16.3988 7.25827 16.4407 7.30313C16.4826 7.34807 16.5127 7.3837 16.5485 7.42608C16.5842 7.46846 16.6254 7.51397 16.663 7.55947C16.7263 7.63649 16.7878 7.71515 16.8477 7.79543C16.8681 7.82248 16.889 7.84768 16.9093 7.87473C16.9873 7.98291 17.0629 8.09372 17.1359 8.20723C17.1674 8.25643 17.1975 8.3074 17.2271 8.3578C17.2567 8.4082 17.2924 8.46414 17.3232 8.5188C17.354 8.57353 17.3798 8.62393 17.4075 8.67675C17.4352 8.72963 17.4692 8.78805 17.4956 8.8452C17.5221 8.90235 17.5461 8.95331 17.5713 9.00741C17.5966 9.0615 17.6255 9.12297 17.6514 9.18197C17.6773 9.24096 17.6964 9.29384 17.7185 9.35035C17.7407 9.40693 17.7665 9.46897 17.7887 9.52924C17.8109 9.58944 17.8294 9.65212 17.8503 9.7099C17.8713 9.76768 17.8903 9.82483 17.9076 9.88325C17.9248 9.9416 17.942 10.0061 17.9587 10.0676C17.9753 10.1291 17.992 10.1856 18.0061 10.2452C18.0203 10.3048 18.0332 10.3681 18.0468 10.4296C18.0603 10.491 18.0732 10.5525 18.0843 10.614C18.0954 10.6754 18.1047 10.7369 18.1139 10.8033C18.1231 10.8696 18.1342 10.9262 18.1416 10.9876C18.1552 11.0976 18.1656 11.2089 18.1737 11.3201C18.1737 11.3478 18.1737 11.3754 18.1779 11.4025C18.1829 11.4922 18.186 11.5813 18.1872 11.6711C18.1872 11.7037 18.1872 11.7362 18.1872 11.7688C18.1872 11.8837 18.1872 11.9986 18.1773 12.1142C18.1687 12.2592 18.1539 12.403 18.1373 12.5444C18.1249 12.6526 18.1096 12.7607 18.0917 12.8676C18.0862 12.9034 18.0781 12.939 18.072 12.9746C18.0591 13.0453 18.0468 13.1166 18.0314 13.1867C18.0246 13.2198 18.016 13.2524 18.008 13.2862C17.9913 13.3606 17.9735 13.4355 17.9544 13.5099C17.9433 13.5511 17.931 13.5917 17.9193 13.6328C17.9008 13.698 17.8823 13.7632 17.8614 13.8277C17.846 13.8762 17.8294 13.9248 17.8128 13.9733C17.7961 14.0219 17.7789 14.0729 17.761 14.1221C17.7431 14.1712 17.7241 14.2192 17.705 14.2677C17.6859 14.3163 17.6668 14.3648 17.6465 14.4134C17.6354 14.4398 17.6237 14.4656 17.612 14.4921C17.5412 14.6561 17.4648 14.8177 17.3817 14.9751C17.3724 14.9923 17.3626 15.0089 17.3533 15.0255C17.2676 15.1853 17.1762 15.3414 17.0793 15.4938L17.0559 15.5276C16.9525 15.6874 16.843 15.8423 16.7277 15.9922C16.7209 16.0015 16.7135 16.0101 16.7067 16.0186C16.5835 16.1772 16.4538 16.3301 16.3175 16.4772C16.2941 16.5024 16.2701 16.5269 16.2467 16.5516C16.195 16.6062 16.1426 16.6597 16.089 16.7126L15.9973 16.8011C15.9455 16.8496 15.8932 16.8982 15.8403 16.9455L15.7516 17.0241C15.6524 17.1096 15.5521 17.1931 15.4492 17.27C15.4455 17.2731 15.4418 17.2749 15.4387 17.278C15.3384 17.3548 15.2355 17.428 15.1308 17.4992L15.047 17.5552C14.9294 17.6332 14.8106 17.7088 14.6886 17.7789L14.6733 17.7874C14.555 17.8551 14.4349 17.9183 14.3124 17.9793L14.2274 18.021C14.1042 18.0825 13.9755 18.1372 13.8468 18.1894L13.7852 18.2127C13.6688 18.2582 13.5506 18.3001 13.4318 18.3394L13.3517 18.3658C13.2193 18.407 13.085 18.4439 12.9502 18.4765L12.8646 18.4961C12.7414 18.5244 12.616 18.5489 12.4883 18.5699C12.4686 18.5699 12.4495 18.5772 12.4304 18.5797C12.2913 18.6018 12.1502 18.6178 12.0092 18.6294C11.9767 18.6323 11.9441 18.6348 11.9113 18.6368C11.7665 18.6473 11.6212 18.6541 11.4746 18.6541H0.5L2.64431 20H13.6171C13.7637 20 13.909 19.9932 14.0538 19.9828C14.087 19.9828 14.119 19.9785 14.1517 19.9754C14.2933 19.9637 14.4343 19.9477 14.5735 19.9262L14.6308 19.9158C14.7576 19.8949 14.8826 19.8703 15.0076 19.842L15.0926 19.8224C15.2282 19.7896 15.3622 19.7527 15.4948 19.7118L15.5742 19.6853C15.6937 19.6468 15.8117 19.6046 15.9283 19.5587L15.9899 19.5354C16.1186 19.4831 16.2455 19.4266 16.3705 19.367L16.4555 19.3252C16.5786 19.2637 16.6981 19.2022 16.8164 19.1334L16.8317 19.1249C16.9549 19.0548 17.0725 18.9792 17.1901 18.9011C17.2043 18.8919 17.2191 18.8839 17.2326 18.8747C17.2462 18.8655 17.2597 18.855 17.2733 18.8458C17.378 18.7739 17.4808 18.7008 17.5812 18.6233L17.591 18.6166C17.6945 18.5367 17.7949 18.4531 17.894 18.3676C17.9057 18.3572 17.9181 18.348 17.9297 18.3382L17.9821 18.2896C18.0357 18.2416 18.088 18.1931 18.1397 18.1439C18.1705 18.1151 18.2013 18.0862 18.2309 18.0561C18.2851 18.0032 18.3374 17.9491 18.3892 17.8944C18.4082 17.8748 18.4286 17.8551 18.4508 17.833C18.455 17.8286 18.4587 17.8231 18.4631 17.8188C18.599 17.6713 18.7287 17.5183 18.8523 17.3597L18.8671 17.3431L18.8726 17.3345C18.9884 17.1845 19.098 17.0272 19.2014 16.8699L19.2181 16.8465C19.2203 16.843 19.2224 16.8393 19.2242 16.8355C19.3222 16.6837 19.4133 16.5282 19.4989 16.3678C19.5051 16.3561 19.5125 16.3456 19.518 16.3346C19.5235 16.3235 19.5235 16.3223 19.5266 16.3167C19.6087 16.1586 19.6857 15.9974 19.7575 15.8331C19.7637 15.8202 19.7705 15.8085 19.776 15.795C19.7815 15.7815 19.7865 15.7686 19.792 15.7556C19.8123 15.7064 19.8315 15.6573 19.8536 15.6081C19.8758 15.5589 19.8912 15.5129 19.909 15.4643C19.9269 15.4157 19.9441 15.3641 19.9614 15.3137C19.973 15.2781 19.9866 15.243 19.9983 15.2074L20.0094 15.1699C20.0297 15.1054 20.0489 15.0397 20.0673 14.9745C20.079 14.934 20.0913 14.8933 20.1018 14.8515C20.1215 14.7772 20.1394 14.7016 20.1566 14.626C20.1628 14.5971 20.1707 14.5689 20.1775 14.54V14.5283C20.1929 14.4576 20.2052 14.3864 20.2182 14.315C20.2244 14.2794 20.2323 14.2449 20.2379 14.2093C20.2557 14.1024 20.2705 13.9949 20.2834 13.886C20.2927 13.803 20.3019 13.7207 20.3093 13.6372C20.3149 13.5757 20.3198 13.5142 20.3235 13.4528C20.3302 13.3372 20.3327 13.2223 20.3333 13.108C20.3297 13.0834 20.3297 13.0508 20.3297 13.0183Z" fill="#B0B0B5" fill-opacity="0.3"/>
<path d="M12.6786 0C15.8046 0 17.5215 3.41096 15.9111 6.2719L14.3598 9.02651L14.0273 9.5624C14.0723 9.61833 14.9215 10.6858 14.9646 12.1437H8.71704L12.9736 4.47975C13.3942 3.72565 12.9157 2.82836 12.093 2.82836H9.01756L9.74673 0H12.6786Z" fill="#B0B0B5"/>
<path d="M15.9788 6.85762C17.3614 8.05178 18.3011 10.0535 18.1774 12.1154C18.1687 12.2605 18.154 12.4042 18.1373 12.5457C17.745 15.9504 14.8309 18.6571 11.4753 18.6571H0.5L6.03752 0H9.15975L7.49703 5.63394H11.8528L10.2135 8.58397H6.62443L4.53059 15.6782H11.6434C13.5494 15.6782 15.1986 14.0803 15.3168 12.1136C15.3722 11.1954 15.0039 10.1377 14.4873 9.50646L15.9788 6.85762Z" fill="#B0B0B5"/>
</svg>

<svg xmlns="http://www.w3.org/2000/svg" width="70" height="20" fill="none"><path fill="#B0B0B5" d="M31.847 15.167H27l2.369-10.333h4.645q3.31.102 2.951 2.545-.386 1.68-1.988 2.29 1.502.714 1.28 2.342-.724 3.156-4.41 3.156m1.357-8.346h-1.767l-.478 2.086h1.77q1.225-.05 1.52-1.12.165-.968-1.045-.968zm-.73 4.071h-1.968l-.525 2.29h1.968q1.423-.048 1.732-1.17.143-1.07-1.208-1.122zm12.453 4.275h-7.76L39.56 4.834h7.607l-.498 2.138H41.72l-.46 1.984h4.595l-.484 2.087h-4.595l-.46 1.984h5.105zm5.932-10.333.432 7.383 3.684-7.384h2.692L51.83 15.168h-2.54L48.166 4.834zm11.983 0-.33 6.515-.154 1.322.51-1.322 2.672-6.515h3.96l-2.38 10.333h-2.439l1.526-6.617.439-1.684-.767 1.782-2.824 6.516h-2.49l.205-6.618.071-1.628-.31 1.58-1.537 6.669H56.5l2.382-10.333z"/><path fill="#B0B0B5" fill-opacity=".5" d="m9.16 0 2.144 1.346L9.64 6.98 7.496 5.634zM6.625 8.584 8.768 9.93l-2.094 7.094-2.144-1.346z"/><path fill="#B0B0B5" fill-opacity=".3" d="M12.64 2.985a1 1 0 0 0-.547-.153H9.017l2.145 1.347h3.075c.194-.002.385.05.55.153zm-2.428 5.599 2.144 1.346H8.768L6.624 8.584z"/><path fill="#B0B0B5" fill-opacity=".5" d="m11.852 5.634 2.144 1.346-1.64 2.95-2.144-1.346zm6.815-.516a4 4 0 0 0-.028-.339v-.01a4 4 0 0 0-.075-.416l-.03-.11a4 4 0 0 0-.087-.292l-.01-.038c-.013-.033-.029-.061-.04-.096a4 4 0 0 0-.314-.646c-.016-.026-.028-.055-.045-.08-.016-.027-.038-.057-.058-.086l-.049-.072a3 3 0 0 0-.2-.263l-.003-.003q-.131-.154-.277-.293l-.01-.012c-.043-.04-.089-.075-.133-.113-.043-.038-.094-.084-.143-.123l-.014-.011a4 4 0 0 0-.285-.2L14.716.57q.156.098.3.21.074.06.145.123.073.06.141.123a4 4 0 0 1 .48.56l.05.072q.053.082.102.166a4 4 0 0 1 .313.645l.051.134a3 3 0 0 1 .086.294q.017.053.03.108a4 4 0 0 1 .109.83 6 6 0 0 1 0 .352q.001.032-.004.065a4 4 0 0 1-.034.342q.001.018-.005.04a5 5 0 0 1-.087.435 4 4 0 0 1-.1.345q-.034.094-.072.191c-.024.064-.054.145-.086.218q-.038.084-.08.168a6 6 0 0 1-.141.28l-1.552 2.754-.332.536c.003 0 .01.013.019.024l.011.014.028.039.02.026.036.053.026.037.044.068.028.044.099.162.016.03a4 4 0 0 1 .12.225q.054.109.11.23l.011.03q.047.111.093.233l.03.083.04.115.033.109.062.238q.016.061.028.129l.024.123.02.136c.007.045.01.078.015.118q.019.157.024.322l2.144 1.346a4 4 0 0 0-.024-.322v-.034q-.005-.043-.012-.085l-.02-.135-.024-.123-.028-.128-.029-.115a6 6 0 0 0-.068-.232l-.038-.114-.015-.045-.016-.04a5 5 0 0 0-.093-.233l-.011-.028a5 5 0 0 0-.11-.232l-.028-.054a4 4 0 0 0-.091-.171l-.016-.028a4 4 0 0 0-.1-.165l-.008-.012-.019-.03-.044-.069-.026-.037-.037-.052-.02-.027-.027-.038-.011-.014-.02-.025.333-.536 1.546-2.75.062-.108c.03-.057.054-.114.082-.172q.042-.084.08-.167l.021-.043c.025-.058.043-.117.065-.175s.05-.127.072-.19l.013-.039q.05-.153.087-.307l.015-.061c.004-.021.014-.054.02-.081a5 5 0 0 0 .053-.293q.001-.02.005-.04.016-.113.026-.226.005-.057.007-.116l.004-.065a4 4 0 0 0 0-.35z"/><path fill="#B0B0B5" fill-opacity=".3" d="m14.965 12.146 2.144 1.347H10.86l-2.144-1.347z"/><path fill="#B0B0B5" fill-opacity=".3" d="M20.33 13.018q0-.136-.01-.268.001-.042-.004-.082a6 6 0 0 0-.028-.312q0-.01-.003-.022l-.027-.184-.03-.191-.038-.18c-.013-.057-.025-.126-.04-.19l-.048-.176q-.024-.091-.051-.184l-.058-.174c-.019-.058-.032-.105-.05-.156l-.01-.024-.07-.18c-.024-.058-.044-.112-.068-.167l-.08-.176-.075-.162c-.027-.053-.062-.113-.09-.17a3 3 0 0 0-.083-.155L19.37 9.7c-.033-.054-.052-.09-.08-.134l-.009-.014a6 6 0 0 0-.227-.333q-.029-.04-.062-.079-.092-.121-.184-.236l-.031-.04-.083-.093-.109-.123c-.037-.041-.084-.088-.127-.131s-.075-.077-.113-.113q-.015-.018-.033-.034a4 4 0 0 0-.189-.17l-2.144-1.347q.114.1.222.204l.113.113c.037.038.086.087.128.132s.072.08.108.123l.114.133q.095.116.185.236l.061.08q.117.162.227.332.047.075.091.15c.03.051.065.107.096.162s.057.105.084.158.062.111.089.168l.075.162.08.175c.026.059.045.112.067.168s.049.119.07.18l.062.18q.031.087.058.173.026.09.05.185.026.09.048.177l.04.185a5 5 0 0 1 .068.373c.01.067.02.123.028.185a7 7 0 0 1 .045.683v.098c0 .115 0 .23-.01.345a8 8 0 0 1-.085.754l-.02.107q-.018.106-.04.212l-.024.1q-.025.11-.054.223-.016.062-.035.123a6 6 0 0 1-.106.34l-.052.15-.056.145-.058.145-.035.08q-.105.245-.23.482l-.029.05q-.128.24-.274.469l-.023.034q-.156.24-.328.464l-.021.027a7 7 0 0 1-.39.458l-.07.075-.158.16-.092.09-.157.143-.088.08q-.15.128-.303.245l-.01.008q-.15.115-.308.221l-.084.056a7 7 0 0 1-.358.224l-.016.008q-.177.101-.36.192l-.086.042a5 5 0 0 1-.38.168l-.062.024a7 7 0 0 1-.353.126l-.08.027a7 7 0 0 1-.402.11l-.085.02a6 6 0 0 1-.377.074c-.02 0-.038.007-.058.01a6 6 0 0 1-.519.057 6 6 0 0 1-.436.017H.5L2.644 20h10.973q.22-.001.437-.017.049-.002.098-.008.212-.016.422-.049l.057-.01a7 7 0 0 0 .377-.074l.085-.02q.203-.049.402-.11l.08-.027q.179-.057.353-.126l.062-.024q.193-.078.38-.168l.085-.042q.185-.09.361-.192l.016-.008q.183-.106.358-.224l.043-.026.04-.03q.158-.106.308-.222l.01-.006q.155-.12.303-.25l.036-.029.052-.048a7 7 0 0 0 .407-.396l.062-.061.012-.014q.204-.221.39-.46l.014-.016.006-.009q.173-.227.328-.464l.017-.024.006-.01a7 7 0 0 0 .275-.468l.019-.033c.005-.012.005-.013.009-.018q.123-.238.23-.484l.019-.038.016-.04q.03-.074.062-.147c.022-.05.037-.095.055-.144q.027-.074.052-.15.02-.053.037-.107l.011-.037.058-.195.035-.123q.029-.112.055-.226l.02-.086v-.012q.023-.106.041-.213l.02-.106a7 7 0 0 0 .071-.572 6 6 0 0 0 .024-.529q-.004-.039-.003-.09"/><path fill="#B0B0B5" d="M12.679 0c3.126 0 4.842 3.411 3.232 6.272L14.36 9.027l-.333.535c.045.056.895 1.124.938 2.582H8.717l4.257-7.664c.42-.754-.058-1.652-.881-1.652H9.018L9.747 0z"/><path fill="#B0B0B5" d="M15.979 6.858c1.382 1.194 2.322 3.196 2.198 5.257a8 8 0 0 1-.04.43c-.392 3.405-3.306 6.112-6.662 6.112H.5L6.038 0H9.16L7.497 5.634h4.356l-1.64 2.95H6.624l-2.093 7.094h7.112c1.906 0 3.556-1.598 3.674-3.564.055-.919-.313-1.976-.83-2.608z"/></svg>
